img/ui/icons/messages.svg.svg

<svg width="24" height="25" viewBox="0 0 24 25" fill="none" xmlns="http://www.w3.org/2000/svg">
<path fill-rule="evenodd" clip-rule="evenodd" d="M19.0714 19.5699C16.0152 22.6263 11.4898 23.2867 7.78642 21.574C7.23971 21.3539 6.79148 21.176 6.36537 21.176C5.17849 21.183 3.70117 22.3339 2.93336 21.567C2.16555 20.7991 3.31726 19.3206 3.31726 18.1266C3.31726 17.7004 3.14642 17.2602 2.92632 16.7124C1.21283 13.0096 1.87411 8.48269 4.93026 5.42721C8.8316 1.52443 15.17 1.52443 19.0714 5.4262C22.9797 9.33501 22.9727 15.6681 19.0714 19.5699Z" stroke="#0F0F0F" stroke-width="1.5" stroke-linecap="round" stroke-linejoin="round"/>
<path d="M15.9398 12.913H15.9488" stroke="#0F0F0F" stroke-width="2" stroke-linecap="round" stroke-linejoin="round"/>
<path d="M11.9301 12.913H11.9391" stroke="#0F0F0F" stroke-width="2" stroke-linecap="round" stroke-linejoin="round"/>
<path d="M7.92128 12.913H7.93028" stroke="#0F0F0F" stroke-width="2" stroke-linecap="round" stroke-linejoin="round"/>
</svg>

<svg width="24" height="25" fill="none" xmlns="http://www.w3.org/2000/svg"><path clip-rule="evenodd" d="M19.071 19.57c-3.056 3.056-7.581 3.717-11.285 2.004-.546-.22-.995-.398-1.42-.398-1.188.007-2.665 1.158-3.433.391-.767-.768.384-2.246.384-3.44 0-.427-.17-.867-.39-1.415C1.212 13.01 1.873 8.482 4.93 5.427c3.902-3.903 10.24-3.903 14.141 0 3.909 3.908 3.902 10.241 0 14.143Z" stroke="#0F0F0F" stroke-width="1.5" stroke-linecap="round" stroke-linejoin="round"/><path d="M15.94 12.913h.009M11.93 12.913h.01M7.921 12.913h.01" stroke="#0F0F0F" stroke-width="2" stroke-linecap="round" stroke-linejoin="round"/></svg>
